X: 147
T: Li shu The fruit tree
%%abc-version 2.0
%%abcx-abcm2ps-target-version 5.9.1 (29 Sep 2008)
%%abc-creator hum2abc beta
%%abcx-conversion-date 2013/10/02 07:44:27
%%abc-edited-by Helmut Schaffrath
%%humdrum-veritas 1147881213
%%humdrum-veritas-data 3259462427
%%continueall 1
%%barnumbers 0
L: 1/8
M: 2/4
K: C
A A G A [I:setbarnb 1]| 
d ec2 | 
A4- | 
A4 | 
A A G A | 
d ec2 | 
C4- | 
C4 | 
D2C A, | 
A3d | 
AG2E | 
C DE2 | 
AG2E | 
D EC2 | 
A,4- | 
A,4 |]  



